X: 7240
T: Clancy's
R: jig
M: 6/8
K: Adorian
|:eAA e2g|eAA edB|eAA e2g|edB dBd|
eAA e2g|edB dBA|GBd ~g3|1 edB dBd:|2 edB dBA||
|:GBd ~g3|ede gdB|GBd g2e|dec BcA|
GBd ~g3|~a3 aga|~b3 aga|1 bge dBA:|2 bge dBd||

